icons/clipboard-line.svg

<svg viewBox="0 0 24 24" fill="currentColor" xmlns="http://www.w3.org/2000/svg">
    <path d="M7 4V2H17V4H20.0066C20.5552 4 21 4.44495 21 4.9934V21.0066C21 21.5552 20.5551 22 20.0066 22H3.9934C3.44476 22 3 21.5551 3 21.0066V4.9934C3 4.44476 3.44495 4 3.9934 4H7ZM7 6H5V20H19V6H17V8H7V6ZM9 4V6H15V4H9Z"/>
</svg>

<svg xmlns="http://www.w3.org/2000/svg" viewBox="0 0 24 24">
    <g>
        <path fill="none" d="M0 0h24v24H0z"/>
        <path d="M7 4V2h10v2h3.007c.548 0 .993.445.993.993v16.014a.994.994 0 0 1-.993.993H3.993A.994.994 0 0 1 3 21.007V4.993C3 4.445 3.445 4 3.993 4H7zm0 2H5v14h14V6h-2v2H7V6zm2-2v2h6V4H9z"/>
    </g>
</svg>
